shader_type canvas_item;

uniform sampler2D SCREEN_TEXTURE : hint_screen_texture, filter_linear_mipmap;
uniform float blur_amount : hint_range(0.0, 5.0) = 2.0;
uniform vec4 mix_color : source_color = vec4(0.0, 0.0, 0.0, 0.3);

void fragment() {
    // Samples the screen behind the menu and blurs it
    vec4 blurred = textureLod(SCREEN_TEXTURE, SCREEN_UV, blur_amount);
    // Mixes the blur with a tint color
    COLOR = mix(blurred, mix_color, mix_color.a);
}